assets/Mx claus/Medium-Dark/Flat/mx_claus_flat_medium-dark.svg

<svg width="32" height="32" viewBox="0 0 32 32" fill="none" xmlns="http://www.w3.org/2000/svg">
<path d="M5.1399 15.34C4.3199 15.34 3.5799 15.65 3.0199 16.16L2.8399 12.36C2.6299 10.45 2.9399 8.62 3.7199 7C5.1799 7.32 6.6399 7.47 8.1399 7.61C10.2199 7.8 12.3199 7.96 14.4099 8.08C16.4499 8.2 18.4899 8.3 20.5299 8.22C22.1199 8.16 23.6899 7.97 25.2499 7.71C25.8299 9.18 26.0399 10.78 25.8399 12.38L25.6699 16.15C25.1099 15.65 24.3699 15.34 23.5599 15.34C21.8299 15.34 20.4199 15.75 20.4199 17.48C20.4199 17.74 20.4499 17.99 20.5099 18.23H8.1899C8.2499 17.99 8.2799 17.74 8.2799 17.48C8.2799 15.75 6.8699 15.34 5.1399 15.34Z" fill="#D3D3D3"/>
<path d="M23.39 23.37C23.29 24.14 23.07 24.86 22.76 25.53C24.23 24.88 25.19 23.42 25.19 21.79V20.02C24.73 20.36 24.17 20.57 23.56 20.61L23.39 23.37Z" fill="#D3D3D3"/>
<path d="M5.14992 20.62C4.50992 20.6 3.90992 20.39 3.41992 20.04V21.79C3.41992 23.47 4.43992 24.97 5.98992 25.59C5.65992 24.91 5.43992 24.16 5.32992 23.37L5.14992 20.62Z" fill="#D3D3D3"/>
<path d="M8.25 17.625C8.25 19.3509 6.85089 20.75 5.125 20.75C3.39911 20.75 2 19.3509 2 17.625C2 15.8991 3.39911 14.5 5.125 14.5C6.85089 14.5 8.25 15.8991 8.25 17.625Z" fill="#8B5C56"/>
<path d="M26.75 17.625C26.75 19.3509 25.3509 20.75 23.625 20.75C21.8991 20.75 20.5 19.3509 20.5 17.625C20.5 15.8991 21.8991 14.5 23.625 14.5C25.3509 14.5 26.75 15.8991 26.75 17.625Z" fill="#8B5C56"/>
<path d="M16.45 3.34998H12.22C7.47997 3.34998 3.91997 7.30998 4.45997 12.22L5.16997 23.11C5.66997 26.81 8.81997 29.57 12.56 29.57H14.36H16.16C19.89 29.57 23.05 26.81 23.55 23.11L24.23 12.22C24.85 7.52998 21.19 3.34998 16.45 3.34998Z" fill="#966661"/>
<path d="M13.6441 17.0239L12.6598 20.1916C12.461 20.8409 12.9482 21.5 13.6342 21.5H15.0958C15.7818 21.5 16.269 20.8409 16.0702 20.1916L15.0858 17.0239C14.8572 16.3254 13.8629 16.3254 13.6441 17.0239Z" fill="#75443E"/>
<path d="M14.4995 23.6423C13.4732 23.6423 12.5174 23.4236 11.7024 23.0318C11.4307 22.9042 11.1289 23.1867 11.2999 23.4236C11.9841 24.3713 13.1613 25 14.4995 25C15.8377 25 17.025 24.3713 17.6991 23.4236C17.8701 23.1867 17.5783 22.9042 17.2966 23.0318C16.4917 23.4145 15.5258 23.6423 14.4995 23.6423Z" fill="#990838"/>
<path d="M7.06992 16.92C7.35992 15.75 8.42991 14.88 9.68991 14.88C10.9999 14.88 12.0999 15.81 12.3399 17.06C12.3999 17.33 12.1799 17.58 11.8999 17.58H7.58992C7.23992 17.58 6.98992 17.25 7.06992 16.92Z" fill="white"/>
<path d="M21.56 16.92C21.27 15.75 20.2 14.88 18.94 14.88C17.63 14.88 16.53 15.81 16.29 17.06C16.23 17.33 16.45 17.58 16.73 17.58H21.04C21.39 17.58 21.64 17.25 21.56 16.92Z" fill="white"/>
<path d="M8.35986 17.12C8.35986 16.16 9.13986 15.39 10.0899 15.39C11.0399 15.39 11.8199 16.16 11.8099 17.12C11.8099 17.28 11.7899 17.43 11.7499 17.58H8.41986C8.37986 17.43 8.35986 17.28 8.35986 17.12Z" fill="#7D4533"/>
<path d="M20.2699 17.12C20.2699 16.16 19.4899 15.39 18.5399 15.39C17.5899 15.39 16.8099 16.16 16.8199 17.12C16.8199 17.28 16.8399 17.43 16.8799 17.58H20.2099C20.2499 17.43 20.2699 17.28 20.2699 17.12Z" fill="#7D4533"/>
<path d="M10.0899 16.13C10.6399 16.13 11.0799 16.58 11.0799 17.12C11.0799 17.28 11.0399 17.44 10.9599 17.58H9.20985C9.13985 17.44 9.09985 17.29 9.09985 17.12C9.09985 16.57 9.54985 16.13 10.0899 16.13Z" fill="black"/>
<path d="M18.54 16.13C17.99 16.13 17.55 16.58 17.55 17.12C17.55 17.28 17.6 17.44 17.67 17.58H19.42C19.49 17.44 19.53 17.29 19.53 17.12C19.53 16.57 19.08 16.13 18.54 16.13Z" fill="black"/>
<path d="M9.80994 16.44C9.80994 16.6112 9.67115 16.75 9.49994 16.75C9.32873 16.75 9.18994 16.6112 9.18994 16.44C9.18994 16.2688 9.32873 16.13 9.49994 16.13C9.67115 16.13 9.80994 16.2688 9.80994 16.44Z" fill="white"/>
<path d="M18.32 16.44C18.32 16.6112 18.1812 16.75 18.01 16.75C17.8387 16.75 17.7 16.6112 17.7 16.44C17.7 16.2688 17.8387 16.13 18.01 16.13C18.1812 16.13 18.32 16.2688 18.32 16.44Z" fill="white"/>
<g opacity="0.5">
<path d="M11.9378 18.4628C11.7378 18.2716 11.4206 18.2787 11.2293 18.4787C11.2266 18.4814 11.2214 18.4864 11.2131 18.4942C11.1965 18.5097 11.169 18.5344 11.1312 18.5654C11.0554 18.6275 10.9395 18.7133 10.7879 18.7997C10.4845 18.9729 10.047 19.1439 9.50107 19.1439C9.22434 19.1439 9 19.3682 9 19.6449C9 19.9217 9.22434 20.146 9.50107 20.146C10.2617 20.146 10.8694 19.907 11.2846 19.6702C11.4923 19.5517 11.6541 19.4325 11.766 19.3408C11.8221 19.2949 11.8661 19.2556 11.8974 19.2263C11.9131 19.2116 11.9257 19.1994 11.9351 19.1901L11.9468 19.1784L11.9508 19.1742L11.9524 19.1726L11.9531 19.1719C12.1443 18.9719 12.1378 18.654 11.9378 18.4628Z" fill="#764C49"/>
<path d="M17.0622 18.4628C17.2622 18.2716 17.5794 18.2787 17.7707 18.4787C17.7734 18.4814 17.7786 18.4864 17.7869 18.4942C17.8035 18.5097 17.831 18.5344 17.8688 18.5654C17.9446 18.6275 18.0605 18.7133 18.2121 18.7997C18.5155 18.9729 18.953 19.1439 19.4989 19.1439C19.7757 19.1439 20 19.3682 20 19.6449C20 19.9217 19.7757 20.146 19.4989 20.146C18.7383 20.146 18.1306 19.907 17.7154 19.6702C17.5077 19.5517 17.3459 19.4325 17.234 19.3408C17.1779 19.2949 17.1339 19.2556 17.1026 19.2263C17.0869 19.2116 17.0743 19.1994 17.0649 19.1901L17.0532 19.1784L17.0492 19.1742L17.0476 19.1726L17.0469 19.1719C16.8557 18.9719 16.8622 18.654 17.0622 18.4628Z" fill="#764C49"/>
</g>
<path d="M19.5599 11.98H24.2499C24.6399 9.84996 23.3499 9.92996 21.7099 9.92996H15.1599C16.2399 11.22 17.8499 11.98 19.5599 11.98Z" fill="#D3D3D3"/>
<path d="M21.0201 2H11.9101C8.52007 2 5.65007 4.16 4.57007 7.17C5.75007 7.38 6.93007 7.5 8.14007 7.62C10.2301 7.81 12.3201 7.97 14.4101 8.09C16.4501 8.21 18.4901 8.31 20.5301 8.23C22.1201 8.17 23.6801 7.97 25.2501 7.72C25.8301 9.19 26.0401 10.79 25.8401 12.39L25.6701 15.3C26.3001 15.87 26.7001 16.56 26.7001 17.49C26.7001 18.55 26.0001 19.6 25.2001 20.17V21.39L26.5901 25.37H28.8201V9.79C28.8101 5.49 25.3301 2 21.0201 2Z" fill="#F8312F"/>
<path d="M22.55 6.05002C23.01 5.74002 23.57 5.58002 24.17 5.61002C25.51 5.68002 26.6 6.76002 26.64 8.09002C26.74 9.65002 25.51 10.95 23.97 10.95C23.43 10.95 22.91 10.78 22.49 10.5C22.22 10.32 21.86 10.32 21.59 10.5C21.17 10.78 20.66 10.95 20.11 10.95C19.57 10.95 19.05 10.78 18.63 10.5C18.36 10.32 18 10.32 17.73 10.5C17.31 10.78 16.8 10.95 16.25 10.95C15.71 10.95 15.19 10.78 14.77 10.5C14.5 10.32 14.14 10.32 13.87 10.5C13.45 10.78 12.94 10.95 12.39 10.95C11.85 10.95 11.33 10.78 10.91 10.5C10.64 10.32 10.28 10.32 10.01 10.5C9.59002 10.78 9.08002 10.95 8.53002 10.95C7.99002 10.95 7.47002 10.78 7.05002 10.5C6.78002 10.32 6.42002 10.32 6.15002 10.5C5.73002 10.78 5.22002 10.95 4.67002 10.95C3.13002 10.95 1.90002 9.65002 2.01002 8.09002C2.10002 6.76002 3.19002 5.68002 4.52002 5.61002C5.12002 5.58002 5.68002 5.75002 6.14002 6.05002C6.42002 6.23002 6.78002 6.24002 7.06002 6.06002C7.48002 5.78002 7.99002 5.61002 8.54002 5.61002C9.09002 5.61002 9.60002 5.77002 10.05 6.06002C10.32 6.24002 10.68 6.24002 10.95 6.06002C11.37 5.78002 11.88 5.61002 12.43 5.61002C12.97 5.61002 13.49 5.78002 13.91 6.06002C14.18 6.24002 14.54 6.24002 14.81 6.06002C15.23 5.78002 15.74 5.61002 16.29 5.61002C16.83 5.61002 17.35 5.78002 17.77 6.06002C18.04 6.24002 18.4 6.24002 18.67 6.06002C19.09 5.78002 19.6 5.61002 20.15 5.61002C20.69 5.61002 21.21 5.78002 21.63 6.06002C21.91 6.25002 22.27 6.23002 22.55 6.05002Z" fill="#F4F4F4"/>
<path d="M30 27.03C30 28.2782 28.9881 29.29 27.74 29.29C26.4918 29.29 25.48 28.2782 25.48 27.03C25.48 25.7819 26.4918 24.77 27.74 24.77C28.9881 24.77 30 25.7819 30 27.03Z" fill="#F4F4F4"/>
<path d="M19.7648 12.6726C20.3402 12.8537 20.72 13.1551 21.0467 13.4396C21.262 13.6272 21.2845 13.9538 21.097 14.1691C20.9094 14.3844 20.5828 14.407 20.3675 14.2194C20.0741 13.9639 19.824 13.7753 19.4543 13.659C19.0765 13.54 18.527 13.483 17.6298 13.5927C17.3464 13.6274 17.0885 13.4258 17.0538 13.1423C17.0192 12.8589 17.2208 12.601 17.5043 12.5663C18.4872 12.4461 19.1976 12.494 19.7648 12.6726Z" fill="#9B9B9B"/>
<path d="M8.44288 12.8871C8.13758 13.0071 7.89582 13.1358 7.72779 13.2363L7.44964 13.4214C7.22423 13.5967 7.18362 13.9216 7.35894 14.147C7.53379 14.3718 7.85746 14.4127 8.08279 14.239L8.08793 14.2352C8.09372 14.2309 8.10407 14.2234 8.11884 14.2132C8.14841 14.1928 8.1955 14.1616 8.25886 14.1236C8.38583 14.0477 8.57657 13.9457 8.82127 13.8495C9.31077 13.657 10.0083 13.4905 10.8443 13.5927C11.1277 13.6274 11.3856 13.4258 11.4203 13.1423C11.455 12.8589 11.2533 12.601 10.9699 12.5663C9.92586 12.4386 9.05338 12.647 8.44288 12.8871Z" fill="#9B9B9B"/>
</svg>

<svg xmlns="http://www.w3.org/2000/svg" width="32" height="32" fill="none"><path fill="#D3D3D3" d="M5.14 15.34c-.82 0-1.56.31-2.12.82l-.18-3.8c-.21-1.91.1-3.74.88-5.36 1.46.32 2.92.47 4.42.61 2.08.19 4.18.35 6.27.47 2.04.12 4.08.22 6.12.14 1.59-.06 3.16-.25 4.72-.51.58 1.47.79 3.07.59 4.67l-.17 3.77c-.56-.5-1.3-.81-2.11-.81-1.73 0-3.14.41-3.14 2.14 0 .26.03.51.09.75H8.19c.06-.24.09-.49.09-.75 0-1.73-1.41-2.14-3.14-2.14ZM23.39 23.37c-.1.77-.32 1.49-.63 2.16a4.085 4.085 0 0 0 2.43-3.74v-1.77c-.46.34-1.02.55-1.63.59l-.17 2.76ZM5.15 20.62c-.64-.02-1.24-.23-1.73-.58v1.75c0 1.68 1.02 3.18 2.57 3.8-.33-.68-.55-1.43-.66-2.22l-.18-2.75Z"/><path fill="#8B5C56" d="M8.25 17.625a3.125 3.125 0 1 1-6.25 0 3.125 3.125 0 0 1 6.25 0ZM26.75 17.625a3.125 3.125 0 1 1-6.25 0 3.125 3.125 0 0 1 6.25 0Z"/><path fill="#966661" d="M16.45 3.35h-4.23c-4.74 0-8.3 3.96-7.76 8.87l.71 10.89c.5 3.7 3.65 6.46 7.39 6.46h3.6a7.46 7.46 0 0 0 7.39-6.46l.68-10.89c.62-4.69-3.04-8.87-7.78-8.87Z"/><path fill="#75443E" d="m13.644 17.024-.984 3.168c-.199.649.288 1.308.974 1.308h1.462c.686 0 1.173-.66.974-1.308l-.984-3.168c-.229-.699-1.223-.699-1.442 0Z"/><path fill="#990838" d="M14.5 23.642a6.46 6.46 0 0 1-2.798-.61c-.271-.128-.573.155-.402.392.684.947 1.861 1.576 3.2 1.576 1.338 0 2.525-.629 3.2-1.576.17-.237-.122-.52-.403-.392a6.56 6.56 0 0 1-2.798.61Z"/><path fill="#fff" d="M7.07 16.92a2.704 2.704 0 0 1 2.62-2.04c1.31 0 2.41.93 2.65 2.18.06.27-.16.52-.44.52H7.59c-.35 0-.6-.33-.52-.66ZM21.56 16.92a2.704 2.704 0 0 0-2.62-2.04c-1.31 0-2.41.93-2.65 2.18-.06.27.16.52.44.52h4.31c.35 0 .6-.33.52-.66Z"/><path fill="#7D4533" d="M8.36 17.12c0-.96.78-1.73 1.73-1.73s1.73.77 1.72 1.73c0 .16-.02.31-.06.46H8.42c-.04-.15-.06-.3-.06-.46ZM20.27 17.12c0-.96-.78-1.73-1.73-1.73s-1.73.77-1.72 1.73c0 .16.02.31.06.46h3.33c.04-.15.06-.3.06-.46Z"/><path fill="#000" d="M10.09 16.13c.55 0 .99.45.99.99 0 .16-.04.32-.12.46H9.21a.992.992 0 0 1 .88-1.45ZM18.54 16.13c-.55 0-.99.45-.99.99 0 .16.05.32.12.46h1.75a.992.992 0 0 0-.88-1.45Z"/><path fill="#fff" d="M9.81 16.44a.31.31 0 1 1-.62 0 .31.31 0 0 1 .62 0ZM18.32 16.44a.31.31 0 1 1-.62 0 .31.31 0 0 1 .62 0Z"/><g fill="#764C49" opacity=".5"><path d="M11.938 18.463a.501.501 0 0 0-.725.031 2.498 2.498 0 0 1-.425.306c-.303.173-.741.344-1.287.344a.501.501 0 1 0 0 1.002 3.59 3.59 0 0 0 2.434-.956l.012-.012.004-.004.001-.001.001-.001a.502.502 0 0 0-.015-.71ZM17.062 18.463a.501.501 0 0 1 .725.031 2.498 2.498 0 0 0 .425.306c.303.173.741.344 1.287.344a.501.501 0 1 1 0 1.002 3.59 3.59 0 0 1-2.434-.956l-.012-.012-.004-.004-.001-.001-.001-.001a.502.502 0 0 1 .015-.71Z"/></g><path fill="#D3D3D3" d="M19.56 11.98h4.69c.39-2.13-.9-2.05-2.54-2.05h-6.55a5.74 5.74 0 0 0 4.4 2.05Z"/><path fill="#F8312F" d="M21.02 2h-9.11C8.52 2 5.65 4.16 4.57 7.17c1.18.21 2.36.33 3.57.45 2.09.19 4.18.35 6.27.47 2.04.12 4.08.22 6.12.14 1.59-.06 3.15-.26 4.72-.51.58 1.47.79 3.07.59 4.67l-.17 2.91c.63.57 1.03 1.26 1.03 2.19 0 1.06-.7 2.11-1.5 2.68v1.22l1.39 3.98h2.23V9.79C28.81 5.49 25.33 2 21.02 2Z"/><path fill="#F4F4F4" d="M22.55 6.05c.46-.31 1.02-.47 1.62-.44 1.34.07 2.43 1.15 2.47 2.48.1 1.56-1.13 2.86-2.67 2.86-.54 0-1.06-.17-1.48-.45a.817.817 0 0 0-.9 0c-.42.28-.93.45-1.48.45-.54 0-1.06-.17-1.48-.45a.817.817 0 0 0-.9 0c-.42.28-.93.45-1.48.45-.54 0-1.06-.17-1.48-.45a.818.818 0 0 0-.9 0c-.42.28-.93.45-1.48.45-.54 0-1.06-.17-1.48-.45a.818.818 0 0 0-.9 0c-.42.28-.93.45-1.48.45-.54 0-1.06-.17-1.48-.45a.818.818 0 0 0-.9 0 2.665 2.665 0 0 1-4.14-2.41 2.68 2.68 0 0 1 2.51-2.48c.6-.03 1.16.14 1.62.44.28.18.64.19.92.01.42-.28.93-.45 1.48-.45.55 0 1.06.16 1.51.45.27.18.63.18.9 0 .42-.28.93-.45 1.48-.45.54 0 1.06.17 1.48.45.27.18.63.18.9 0 .42-.28.93-.45 1.48-.45.54 0 1.06.17 1.48.45.27.18.63.18.9 0 .42-.28.93-.45 1.48-.45.54 0 1.06.17 1.48.45.28.19.64.17.92-.01ZM30 27.03a2.26 2.26 0 1 1-4.52 0 2.26 2.26 0 0 1 4.52 0Z"/><path fill="#9B9B9B" d="M19.765 12.673c.575.18.955.482 1.282.767a.517.517 0 0 1-.68.78c-.293-.256-.543-.445-.913-.561-.378-.119-.927-.176-1.824-.066a.517.517 0 1 1-.126-1.027c.983-.12 1.694-.072 2.26.107ZM8.443 12.887c-.305.12-.547.249-.715.35l-.278.184a.517.517 0 0 0 .633.818l.005-.004.03-.022a3.847 3.847 0 0 1 .702-.364 4.138 4.138 0 0 1 2.024-.256.517.517 0 1 0 .126-1.027 5.171 5.171 0 0 0-2.527.321Z"/></svg>
